build/category/MagnetSolid.svg

<svg xmlns="http://www.w3.org/2000/svg" fill="none" viewBox="0 0 24 24" focusable="false"><path d="M0 0H24V24H0z"/><path fill="#74767B" fill-rule="evenodd" d="M20.5243 13.9918L15.8194 18.6967C12.8905 21.6256 8.14174 21.6256 5.21281 18.6967C2.28388 15.7677 2.28388 11.019 5.21282 8.09006L9.91773 3.38516C10.4254 2.87747 11.2485 2.87747 11.7562 3.38516L13.833 5.46191C14.3406 5.96959 14.3406 6.79271 13.833 7.30039L9.32689 11.8064C8.54959 12.5837 8.54958 13.844 9.32689 14.6213C10.1042 15.3986 11.3644 15.3986 12.1418 14.6213L16.6478 10.1153C17.1555 9.60758 17.9786 9.60758 18.4863 10.1153L20.5243 12.1533C21.032 12.661 21.032 13.4841 20.5243 13.9918ZM9.2899 5.85146L11.3667 7.92821L12.9137 6.38115L10.837 4.30439L9.2899 5.85146ZM19.6051 13.0725L18.058 14.6196L16.02 12.5816L17.5671 11.0345L19.6051 13.0725Z"/></svg>

<svg xmlns="http://www.w3.org/2000/svg" fill="none" viewBox="0 0 24 24" focusable="false"><path fill="#74767B" fill-rule="evenodd" d="m20.52 13.99-4.71 4.7c-2.92 2.93-7.67 2.93-10.6 0s-2.93-7.68 0-10.6l4.7-4.71c.51-.51 1.33-.51 1.84 0l2.08 2.08c.51.5.51 1.33 0 1.84l-4.51 4.5c-.78.78-.78 2.04 0 2.82.78.77 2.04.77 2.82 0l4.5-4.51c.51-.51 1.33-.51 1.84 0l2.04 2.04c.51.51.51 1.33 0 1.84M9.29 5.85l2.07 2.07 1.55-1.54-2.08-2.08zm10.31 7.22-1.55 1.54-2.03-2.03 1.54-1.55z"/></svg>
